Origami/32x32/apps/peek.svg

<svg width="32" height="32" version="1.1" viewBox="0 0 32 32" xmlns="http://www.w3.org/2000/svg">
 <path d="M 16,3 A 14,14 0 0 0 2,17 14,14 0 0 0 16,31 14,14 0 0 0 30,17 14,14 0 0 0 16,3 Z" style="opacity:.2"/>
 <path d="M 16,2 A 14,14 0 0 0 2,16 14,14 0 0 0 16,30 14,14 0 0 0 30,16 14,14 0 0 0 16,2 Z" style="fill:#ff8e20"/>
 <path d="m16 3a14 14 0 0 0 -1.289062 0.0644531c-0.060611 0.00533-0.120896 0.0115251-0.181641 0.0175781a14 14 0 0 0 -5.4609376 1.765625l-3.9082032 19.996094a14 14 0 0 0 5.0371098 3.876953l1.43164-7.783203c1.497456 0.08509 3.535838 0.09294 5.449219-0.167969 2.213875-0.301892 4.442326-0.935459 6.474609-2.505859 2.032283-1.570401 3.494141-3.679948 3.494141-6.863281 0-1.166747-0.164714-2.5124916-0.451172-3.5390629a14 14 0 0 0 0 -0.0019531c-0.01483-0.017199-0.031975-0.0317111-0.046875-0.0488281-0.304083-0.3493612-0.623216-0.6814559-0.957031-0.9960938a14 14 0 0 0 -0.230469 -0.203125c-0.285393-0.257379-0.57887-0.5064293-0.882812-0.7382812a14 14 0 0 0 -0.326172 -0.234375c-0.281155-0.2019482-0.566805-0.3960807-0.861328-0.5761719a14 14 0 0 0 -0.427735 -0.2441406c-0.277208-0.1563537-0.556765-0.3063493-0.84375-0.4433594a14 14 0 0 0 -0.466797 -0.2089844c-0.287846-0.1247093-0.579174-0.2405185-0.875-0.3457031a14 14 0 0 0 -0.509765 -0.1699219c-0.283437-0.0886696-0.570175-0.1676715-0.859375-0.2382812a14 14 0 0 0 -0.576172 -0.1289063c-0.286763-0.0572963-0.57621-0.1032405-0.867188-0.1425781a14 14 0 0 0 -0.574218 -0.0683594c-0.427599-0.0398715-0.857607-0.0720026-1.291016-0.0722656zm0.574219 4c0.585434-0.00219 1.162725 0.0301402 1.734375 0.0820312 1.157317 0.1600015 2.076301 0.5205732 2.644531 1.0390626 0.56823 0.5184898 1.046875 1.2487277 1.046875 3.0859372 0 1.674626-0.479772 2.568227-1.367188 3.212891-0.887416 0.644666-2.411648 1.206184-4.109374 1.423828-1.199111 0.153721-2.427602 0.174975-3.523438 0.144531l1.787109-8.8652341c0.607739-0.084495 1.201676-0.1208614 1.78711-0.1230469z" style="opacity:.2"/>
 <path d="m16 2a14 14 0 0 0 -1.289062 0.0644531c-0.060605 0.0053253-0.120896 0.0115248-0.181641 0.0175781a14 14 0 0 0 -5.4609376 1.765625l-4.0644532 20.792969a14 14 0 0 0 3.2011719 2.976563c0.2047488 0.128672 0.4114617 0.261847 0.6113281 0.380859a14 14 0 0 0 0.015625 0.009765 14 14 0 0 0 1.1953128 0.636719l1.601562-8.707031c1.497456 0.08509 3.535838 0.09294 5.449219-0.167969 2.213875-0.301892 4.442326-0.935459 6.474609-2.505859 2.032283-1.570401 3.494141-3.679948 3.494141-6.863281 0-1.1667469-0.164714-2.5124916-0.451172-3.5390629a14 14 0 0 0 0 -0.0019531c-0.014825-0.0171985-0.031975-0.0317112-0.046875-0.0488281-0.304078-0.349323-0.623216-0.6814559-0.957031-0.9960938a14 14 0 0 0 -0.230469 -0.203125c-0.285393-0.257379-0.57887-0.5064293-0.882812-0.7382812a14 14 0 0 0 -0.326172 -0.234375c-0.281155-0.2019482-0.566805-0.3960807-0.861328-0.5761719a14 14 0 0 0 -0.427735 -0.2441406c-0.277208-0.1563537-0.556765-0.3063493-0.84375-0.4433594a14 14 0 0 0 -0.466797 -0.2089844c-0.287846-0.1247093-0.579174-0.2405185-0.875-0.3457031a14 14 0 0 0 -0.509765 -0.1699219c-0.283437-0.0886696-0.570175-0.1676715-0.859375-0.2382812a14 14 0 0 0 -0.576172 -0.1289063c-0.286763-0.0572963-0.57621-0.1032405-0.867188-0.1425781a14 14 0 0 0 -0.574218 -0.0683594c-0.427599-0.0398715-0.857607-0.0720026-1.291016-0.0722656zm0.574219 4c0.585434-0.00219 1.162725 0.0301402 1.734375 0.0820312 1.157317 0.1600015 2.076301 0.5205733 2.644531 1.0390626 0.56823 0.5184896 1.046875 1.2487275 1.046875 3.0859372 0 1.674626-0.479772 2.568227-1.367188 3.212891-0.887416 0.644666-2.411648 1.206184-4.109374 1.423828-1.19911 0.153721-2.427602 0.174975-3.523438 0.144531l1.787109-8.8652341c0.607739-0.084495 1.201676-0.1208614 1.78711-0.1230469z" style="fill:#ffffff"/>
 <path d="M 16 2 A 14 14 0 0 0 2 16 A 14 14 0 0 0 2.0214844 16.414062 A 14 14 0 0 1 16 3 A 14 14 0 0 1 29.978516 16.585938 A 14 14 0 0 0 30 16 A 14 14 0 0 0 16 2 z" style="fill:#ffffff;opacity:.2"/>
</svg>

<svg xmlns="http://www.w3.org/2000/svg" width="32" height="32" version="1.1" viewBox="0 0 32 32">
 <path style="opacity:0.2" d="M 16,3 A 14,14 0 0 0 2,17 14,14 0 0 0 16,31 14,14 0 0 0 30,17 14,14 0 0 0 16,3 Z"/>
 <path style="fill:#ff8e20" d="M 16,2 A 14,14 0 0 0 2,16 14,14 0 0 0 16,30 14,14 0 0 0 30,16 14,14 0 0 0 16,2 Z"/>
 <path style="opacity:0.2" d="M 16 3 A 14 14 0 0 0 14.710938 3.0644531 C 14.650327 3.0697831 14.590042 3.0759782 14.529297 3.0820312 A 14 14 0 0 0 9.0683594 4.8476562 L 5.1601562 24.84375 A 14 14 0 0 0 10.197266 28.720703 L 11.628906 20.9375 C 13.126362 21.02259 15.164744 21.03044 17.078125 20.769531 C 19.292 20.467639 21.520451 19.834072 23.552734 18.263672 C 25.585017 16.693271 27.046875 14.583724 27.046875 11.400391 C 27.046875 10.233644 26.882161 8.8878994 26.595703 7.8613281 A 14 14 0 0 0 26.595703 7.859375 C 26.580873 7.842176 26.563728 7.8276639 26.548828 7.8105469 C 26.244745 7.4611857 25.925612 7.129091 25.591797 6.8144531 A 14 14 0 0 0 25.361328 6.6113281 C 25.075935 6.3539491 24.782458 6.1048988 24.478516 5.8730469 A 14 14 0 0 0 24.152344 5.6386719 C 23.871189 5.4367237 23.585539 5.2425912 23.291016 5.0625 A 14 14 0 0 0 22.863281 4.8183594 C 22.586073 4.6620057 22.306516 4.5120101 22.019531 4.375 A 14 14 0 0 0 21.552734 4.1660156 C 21.264888 4.0413063 20.97356 3.9254971 20.677734 3.8203125 A 14 14 0 0 0 20.167969 3.6503906 C 19.884532 3.561721 19.597794 3.4827191 19.308594 3.4121094 A 14 14 0 0 0 18.732422 3.2832031 C 18.445659 3.2259068 18.156212 3.1799626 17.865234 3.140625 A 14 14 0 0 0 17.291016 3.0722656 C 16.863417 3.0323941 16.433409 3.000263 16 3 z M 16.574219 7 C 17.159653 6.99781 17.736944 7.0301402 18.308594 7.0820312 C 19.465911 7.2420327 20.384895 7.6026044 20.953125 8.1210938 C 21.521355 8.6395836 22 9.3698215 22 11.207031 C 22 12.881657 21.520228 13.775258 20.632812 14.419922 C 19.745396 15.064588 18.221164 15.626106 16.523438 15.84375 C 15.324327 15.997471 14.095836 16.018725 13 15.988281 L 14.787109 7.1230469 C 15.394848 7.0385519 15.988785 7.0021855 16.574219 7 z"/>
 <path style="fill:#ffffff" d="M 16 2 A 14 14 0 0 0 14.710938 2.0644531 C 14.650333 2.0697784 14.590042 2.0759779 14.529297 2.0820312 A 14 14 0 0 0 9.0683594 3.8476562 L 5.0039062 24.640625 A 14 14 0 0 0 8.2050781 27.617188 C 8.4098269 27.74586 8.6165398 27.879035 8.8164062 27.998047 A 14 14 0 0 0 8.8320312 28.007812 A 14 14 0 0 0 10.027344 28.644531 L 11.628906 19.9375 C 13.126362 20.02259 15.164744 20.03044 17.078125 19.769531 C 19.292 19.467639 21.520451 18.834072 23.552734 17.263672 C 25.585017 15.693271 27.046875 13.583724 27.046875 10.400391 C 27.046875 9.2336441 26.882161 7.8878994 26.595703 6.8613281 A 14 14 0 0 0 26.595703 6.859375 C 26.580878 6.8421765 26.563728 6.8276638 26.548828 6.8105469 C 26.24475 6.4612239 25.925612 6.129091 25.591797 5.8144531 A 14 14 0 0 0 25.361328 5.6113281 C 25.075935 5.3539491 24.782458 5.1048988 24.478516 4.8730469 A 14 14 0 0 0 24.152344 4.6386719 C 23.871189 4.4367237 23.585539 4.2425912 23.291016 4.0625 A 14 14 0 0 0 22.863281 3.8183594 C 22.586073 3.6620057 22.306516 3.5120101 22.019531 3.375 A 14 14 0 0 0 21.552734 3.1660156 C 21.264888 3.0413063 20.97356 2.9254971 20.677734 2.8203125 A 14 14 0 0 0 20.167969 2.6503906 C 19.884532 2.561721 19.597794 2.4827191 19.308594 2.4121094 A 14 14 0 0 0 18.732422 2.2832031 C 18.445659 2.2259068 18.156212 2.1799626 17.865234 2.140625 A 14 14 0 0 0 17.291016 2.0722656 C 16.863417 2.0323941 16.433409 2.000263 16 2 z M 16.574219 6 C 17.159653 5.99781 17.736944 6.0301402 18.308594 6.0820312 C 19.465911 6.2420327 20.384895 6.6026045 20.953125 7.1210938 C 21.521355 7.6395834 22 8.3698213 22 10.207031 C 22 11.881657 21.520228 12.775258 20.632812 13.419922 C 19.745396 14.064588 18.221164 14.626106 16.523438 14.84375 C 15.324328 14.997471 14.095836 15.018725 13 14.988281 L 14.787109 6.1230469 C 15.394848 6.0385519 15.988785 6.0021855 16.574219 6 z"/>
 <path style="fill:#ffffff;opacity:0.2" d="M 16 2 A 14 14 0 0 0 2 16 A 14 14 0 0 0 2.0214844 16.414062 A 14 14 0 0 1 16 3 A 14 14 0 0 1 29.978516 16.585938 A 14 14 0 0 0 30 16 A 14 14 0 0 0 16 2 z"/>
</svg>
